X:763
T:Nell Flaherty's Drake.
T:The Widow's Curse.
C:F. O'Neill.
B:O'Neill's Music of Ireland
N:O'Neill's - 763
Z:Transcribed by Stephen Foy (shf@access.digex.net)
Z:abc 1.6
M:6/8
R:Jig
K:G
D|GAB AGE|DEG GBd|efg dBG|cBAA A2 D|\
GAB AGE|DEG GBd|efg dBA|BGG G2:|
||B|def agfg|afd edB|gfg edB|cBAA A2 D|\
GAB AGE|DEG GBd|efg dBA|BGG G2:|
